X:10668
T:Memories of Eddie Irwin
R:reel
C:Jerry Holland, SOCAN
O:20th Century Cape Breton
S:Tune ofthe Month, April 2000
A:<http://www.jerryholland.com>
N:Contacts ...
N:..... Jerry Holland <jerry@cranfordpub.com>
N:Tune books, related recordings
N:..... Cranford Publications <http://www.cranfordpub.com>
H:Copyrights - www.fiddlesticksmusic.com (SOCAN)
Z:Paul Stewart Cranford 
L:1/8
Q:333
M:C|
K:D
A|defA B2 Bd|ABAF ABdB|defA Bcde|dBAB FEEA|
defA B2 Bd|ABAF ABde|fgfd efec|dABd FEE:|!
|:e|faaf gaba|affe defd|gaba afef|abaf e2 eg|!
faaf gaba|affe defa|g2 gb fgfd|ecdF FEE:|]!
